X:1
T: White Heather Jig
T: First Tune
R:Jig
Q:180
K:G
M:6/8
L:1/16
D6|G4G2 F2G2A2|G4G2 G4D2|B4B2 A2B2c2|B6 B4B2|c4c2 A4c2|B4B2 G4G2|A2B2A2 G2F2E2|D6 D4D2|
G4G2 F2G2A2|G4G2 G4D2|B4B2 A2B2c2|B6 B4B2|c4A2 F4e2|d4c2 B4d2|d2e2d2 c2B2A2|G6 A6|
K:D
A4B2 B4A2|A2f2d2 A4A2|A4f2 f2e2f2|g6 g2c2B2|A4c2 c4B2|B4A2 A4A2|d2e2d2 c4B2|B4_B2 A4A2|
A4B2 B4A2|A2f2d2 A4A2|a4d2 d4c2|B6 B4B2|B4g2 g4B2|A4f2 f4d2|c4A2 A2B2c2|d6 D6|
K:G
G4G2 F2G2A2|G4G2 G4D2|B4B2 A2B2c2|B6 B4B2|c4A2 F4e2|d4c2 B4d2|d2e2d2 c2B2A2|G6-G2F2=F2||
